svgs/sharp-solid/person-rifle.svg

<svg xmlns="http://www.w3.org/2000/svg" viewBox="0 0 576 512"><!--! Font Awesome Pro 6.6.0 by @fontawesome - https://fontawesome.com License - https://fontawesome.com/license (Commercial License) Copyright 2024 Fonticons, Inc. --><path d="M320 192l16 0 0 320-192 0 0-174.3L90.4 428.3 70.1 462.8 1.2 422.1l20.3-34.4 104-176L137.2 192l22.8 0 160 0zM160 80a80 80 0 1 1 160 0A80 80 0 1 1 160 80zM464 0l0 128 16 0 0 141.3 16-5.3 0-72 48 0 0 112-64 21.3 0 26.7 64 0 0 48-60 0 28 112-96 0 0-112-48 0 0-208 32 0 0-64 16 0 0-96-16 0 0-32 16 0 32 0 16 0z"/></svg>

<svg xmlns="http://www.w3.org/2000/svg" viewBox="0 0 576 512"><!--! Font Awesome Pro 6.4.0 by @fontawesome - https://fontawesome.com License - https://fontawesome.com/license (Commercial License) Copyright 2023 Fonticons, Inc. --><path d="M320 192h16V512H144V337.7L90.4 428.3 70.1 462.8 1.2 422.1l20.3-34.4 104-176L137.2 192H160 320zM160 80a80 80 0 1 1 160 0A80 80 0 1 1 160 80zM464 0V128h16V269.3l16-5.3V192h48V304l-64 21.3V352h64v48H484l28 112H416V400H368V192h32V128h16V32H400V0h16 32 16z"/></svg>
